X:1
T:Battle of Alma (2)
M:6/8
L:1/8
K:G
 D/2C/2| B,2 D G2 A| B2 A B2 G| F2 G A2 G| F2 E D2 D| B,2 D G2 A| B2 G A2B/2-A/2|\
 G2 GD-E F| G3 G3| D2 D/2D/2 D2 D| E2 D B,DD| D2 D D2 D| E2 D B,DD|\
 B,2 D G2 A| B2 G ABA| G2 ED-E F| G3 G2||
